X: 1
T: Gro\sser Achter [Bb]
O: Germany
Z: 2009 John Chambers <jc:trillian.mit.edu>
M: C|
L: 1/8
K: Bb
F2 \
| "Bb"B2F2 GF=EF | D2E2 F2","F2 | "Bb"B2F2 GF=EF | D2E2 F2B2 \
| "F"AFGA Bcde | "Bb"f2d2 B2B2 | "F7"FGAB cdec | "Bb"B2B2 B2 :|
|: d2 \
| "C7"c2B2 A2B2 |"F"A2G2 F2A2 | "C7"G2F2 =E2G2 | "F"F6 "F7"F2 \
| "Bb"B2B2 "F7"A2A2 | "Eb"G2G2 "Bb"F2F2 | "F7"E2C2 B,2A,2 | "Bb"B,6 :|
|: FB \
| "Bb"d6 Bd | f6 df | "F7"efed cdcB | A2F2 F2FB \
| "Bb"d6 Bd | f6 f2 | "Eb"g2g2 "F7"a2a2 | "Bb"b6 :|
K: F
M: 3/4
|: FG \
| "F"A3 G F2 | "Bb"dc BA GF | "C7"G3 F E2 | ed cB AG \
| "F"F3 G A2 | F3 G A2 | "C7"A2 G2 E2 | "F"F2 F2 :|


%%sep 2 1 500

